public/images/icons/re-icons/re-loader.svg

<svg width="23" height="23" viewBox="0 0 23 23" fill="none" xmlns="http://www.w3.org/2000/svg">
<!-- <rect width="22.0454" height="22.0454" fill="none"/> -->
<path d="M8.95221 18.7496C8.41874 18.6067 7.8704 18.9233 7.72746 19.4567C7.58452 19.9902 7.9011 20.5385 8.43457 20.6815L8.95221 18.7496ZM13.0933 3.29481C17.361 4.43835 19.8937 8.82504 18.7502 13.0928L20.682 13.6104C22.1114 8.27575 18.9456 2.79238 13.6109 1.36296L13.0933 3.29481ZM3.29535 8.95167C4.43889 4.68394 8.82558 2.15128 13.0933 3.29481L13.6109 1.36296C8.27629 -0.0664584 2.79292 3.09937 1.3635 8.43403L3.29535 8.95167ZM8.43457 20.6815C13.7692 22.1109 19.2526 18.9451 20.682 13.6104L18.7502 13.0928C17.6066 17.3605 13.2199 19.8932 8.95221 18.7496L8.43457 20.6815Z" fill="#EDF6FF"/>
<path d="M11.0227 3.02246C11.575 3.02246 12.0227 2.57475 12.0227 2.02246C12.0227 1.47018 11.575 1.02246 11.0227 1.02246V3.02246ZM11.0227 19.0225C6.60443 19.0225 3.02271 15.4407 3.02271 11.0225H1.02271C1.02271 16.5453 5.49986 21.0225 11.0227 21.0225V19.0225ZM19.0227 11.0225C19.0227 15.4407 15.441 19.0225 11.0227 19.0225V21.0225C16.5456 21.0225 21.0227 16.5453 21.0227 11.0225H19.0227ZM11.0227 1.02246C5.49986 1.02246 1.02271 5.49961 1.02271 11.0225H3.02271C3.02271 6.60418 6.60443 3.02246 11.0227 3.02246V1.02246Z" fill="url(#paint0_linear_109_2811)"/>
<defs>
<linearGradient id="paint0_linear_109_2811" x1="13.5227" y1="6.02246" x2="20.0227" y2="11.0225" gradientUnits="userSpaceOnUse">
<stop stop-color="#0084FF"/>
<stop offset="1" stop-color="#0084FF" stop-opacity="0"/>
</linearGradient>
</defs>
</svg>

<svg fill="none" viewBox="0 0 23 23"><path fill="#EDF6FF" d="M8.952 18.75a1 1 0 00-.517 1.931l.517-1.931zm4.141-15.455a8 8 0 015.657 9.798l1.932.517c1.43-5.334-1.736-10.818-7.071-12.247l-.518 1.932zM3.295 8.952a8 8 0 019.798-5.657l.518-1.932C8.276-.067 2.793 3.099 1.363 8.434l1.932.518zm5.14 11.73c5.334 1.429 10.818-1.737 12.247-7.072l-1.932-.517a8 8 0 01-9.798 5.657l-.517 1.931z"/><path fill="url(#paint0_linear_109_2811)" d="M11.023 3.022a1 1 0 100-2v2zm0 16a8 8 0 01-8-8h-2c0 5.523 4.477 10 10 10v-2zm8-8a8 8 0 01-8 8v2c5.523 0 10-4.477 10-10h-2zm-8-10c-5.523 0-10 4.478-10 10h2a8 8 0 018-8v-2z"/><defs><linearGradient id="paint0_linear_109_2811" x1="13.523" x2="20.023" y1="6.022" y2="11.023" gradientUnits="userSpaceOnUse"><stop stop-color="#0084FF"/><stop offset="1" stop-color="#0084FF" stop-opacity="0"/></linearGradient></defs></svg>
